X: 206
T: Wunu guandeng
%%abc-version 2.0
%%abcx-abcm2ps-target-version 5.9.1 (29 Sep 2008)
%%abc-creator hum2abc beta
%%abcx-conversion-date 2013/10/02 07:52:29
%%abc-edited-by Helmut Schaffrath
%%humdrum-veritas 2746196638
%%humdrum-veritas-data 3415866473
%%continueall 1
%%barnumbers 0
L: 1/8
M: 2/4
K: A
z c c c [I:setbarnb 1]| 
c> Bc2 | 
c e c c/ B/ | 
c c/ B/ F A- | 
A3e | 
G G F F/ G/ | 
F F/ E/ C G | 
F> EC2 | 
F/ G/ F/ E/C2 | 
c> Bc2 | 
c c c c/ B/ | 
e> FA2 | 
G G F/ G/ F/ E/ | 
C EC2 | 
c c c c/ B/ | 
e> FA2 | 
G G F/ G/ F/ E/ | 
C EC2 | 
F/ G/ F/ E/C2 | 
C> B,C2 | 
c c c c/ B/ | 
e> FA2 | 
G G F/ G/ F/ E/ | 
C EC2 | 
c c c c/ B/ | 
e> FA2 | 
G G F/ G/ F/ E/ | 
C EC2 | 
B B/ G/ B G | 
B B/ G/ B B/ c/ | 
FF2G | 
BB2c | 
e2e2 | 
c> e c c | 
B A B3/ c/ | 
G> F E F | 
A CE2- | 
E4 |]  



